img/icons/Header/intro-card/arcticons_git.svg

<svg width="23" height="23" viewBox="0 0 23 23" fill="none" xmlns="http://www.w3.org/2000/svg">
<g clip-path="url(#clip0_316_778)">
<path d="M11.5 0C5.14625 0 0 5.14625 0 11.5C0 16.5887 3.29187 20.8869 7.86312 22.4106C8.43812 22.5113 8.65375 22.1663 8.65375 21.8644C8.65375 21.5913 8.63938 20.6856 8.63938 19.7225C5.75 20.2544 5.0025 19.0181 4.7725 18.3712C4.64312 18.0406 4.0825 17.02 3.59375 16.7469C3.19125 16.5312 2.61625 15.9994 3.57938 15.985C4.485 15.9706 5.13188 16.8187 5.3475 17.1637C6.3825 18.9031 8.03563 18.4144 8.69688 18.1125C8.7975 17.365 9.09937 16.8619 9.43 16.5744C6.87125 16.2869 4.1975 15.295 4.1975 10.8962C4.1975 9.64562 4.64313 8.61062 5.37625 7.80562C5.26125 7.51812 4.85875 6.33937 5.49125 4.75812C5.49125 4.75812 6.45438 4.45625 8.65375 5.93688C9.57375 5.67813 10.5513 5.54875 11.5288 5.54875C12.5063 5.54875 13.4838 5.67813 14.4038 5.93688C16.6031 4.44188 17.5663 4.75812 17.5663 4.75812C18.1988 6.33937 17.7963 7.51812 17.6813 7.80562C18.4144 8.61062 18.86 9.63125 18.86 10.8962C18.86 15.3094 16.1719 16.2869 13.6131 16.5744C14.03 16.9337 14.3894 17.6238 14.3894 18.7019C14.3894 20.24 14.375 21.4763 14.375 21.8644C14.375 22.1663 14.5906 22.5256 15.1656 22.4106C17.4487 21.6401 19.4326 20.1729 20.838 18.2157C22.2435 16.2584 22.9996 13.9096 23 11.5C23 5.14625 17.8538 0 11.5 0Z" fill="white"/>
</g>
<defs>
<clipPath id="clip0_316_778">
<rect width="23" height="23" fill="white"/>
</clipPath>
</defs>
</svg>

<svg width="23" height="23" fill="none" xmlns="http://www.w3.org/2000/svg"><g clip-path="url(#a)"><path d="M11.5 0C5.146 0 0 5.146 0 11.5c0 5.089 3.292 9.387 7.863 10.91.575.101.79-.244.79-.546 0-.273-.014-1.178-.014-2.142-2.889.532-3.636-.704-3.866-1.35-.13-.331-.69-1.352-1.18-1.625-.402-.216-.977-.748-.014-.762.906-.014 1.553.834 1.768 1.179 1.035 1.74 2.689 1.25 3.35.948.1-.747.402-1.25.733-1.538-2.559-.287-5.232-1.279-5.232-5.678 0-1.25.445-2.285 1.178-3.09-.115-.288-.517-1.467.115-3.048 0 0 .963-.302 3.163 1.179.92-.259 1.897-.388 2.875-.388.977 0 1.955.13 2.875.388 2.2-1.495 3.162-1.179 3.162-1.179.633 1.581.23 2.76.115 3.048.733.805 1.179 1.825 1.179 3.09 0 4.413-2.688 5.39-5.247 5.678.417.36.776 1.05.776 2.128 0 1.538-.014 2.774-.014 3.162 0 .302.216.662.79.547A11.517 11.517 0 0 0 23 11.5C23 5.146 17.854 0 11.5 0Z" fill="#fff"/></g><defs><clipPath id="a"><path fill="#fff" d="M0 0h23v23H0z"/></clipPath></defs></svg>
